X: 43574
T: Young Jenny The Pride Of Our Town
R: jig
M: 6/8
K: Dmajor
|:dcB AFD|~G3 ABc|dcB AFD|GEE ~E3|
dcB AFA|Bed cBc|dcB AFE|1 FDD D3:|2 FDD D2c||
|:dfe dAG|FAA ABc|dfd AFA|Bee eBc|
dfe dFA|Bdc dfe|dcB AFE|FDD D3:|

